favicon.svg

<?xml version="1.0" encoding="UTF-8"?>
<svg id="Layer_1" data-name="Layer 1" xmlns="http://www.w3.org/2000/svg" viewBox="0 0 640 640">
  <defs>
    <style>
      .cls-1 {
        fill: #fff;
      }
    </style>
  </defs>
  <path class="cls-1" d="M406.6,73.4c-12.5-12.5-32.8-12.5-45.3,0s-12.5,32.8,0,45.3l9.4,9.3L92.1,406.6c-18,18-28.1,42.4-28.1,67.9v5.5c0,53,43,96,96,96h5.5c25.5,0,49.9-10.1,67.9-28.1l278.6-278.6,9.4,9.4c12.5,12.5,32.8,12.5,45.3,0s12.5-32.8,0-45.3l-160-160h-.1ZM269.2,320l146.8-146.7,50.7,50.7-96,96h-101.5Z"/>
</svg>

<svg xmlns="http://www.w3.org/2000/svg" viewBox="0 0 640 640"><!--!Font Awesome Free 7.2.0 by @fontawesome - https://fontawesome.com License - https://fontawesome.com/license/free Copyright 2026 Fonticons, Inc.--><path d="M406.6 73.4C394.1 60.9 373.8 60.9 361.3 73.4C348.8 85.9 348.8 106.2 361.3 118.7L370.7 128L92.1 406.6C74.1 424.6 64 449 64 474.5L64 480C64 533 107 576 160 576L165.5 576C191 576 215.4 565.9 233.4 547.9L512 269.3L521.4 278.7C533.9 291.2 554.2 291.2 566.7 278.7C579.2 266.2 579.2 245.9 566.7 233.4L406.7 73.4zM269.3 320L416 173.3L466.7 224L370.7 320L269.2 320z"/></svg>
